build/Karasa-Jaga/scalable/actions/tools-check-spelling-symbolic.svg

<svg height="16" width="16" xmlns="http://www.w3.org/2000/svg"><g fill="#bfbfbf" fill-opacity=".901961"><path d="m5.943561 9.3213963-1.4627549 1.5846507 4.5101609 4.449213 7.009033-6.3690784-1.706547-1.3103845-5.272012 4.6130109z"/><path d="m4.6013217 6.6629765h-2.561159l-.4869123 1.460737h-1.5532504l2.6390649-7.0894438h1.3536163l2.6536723 7.0894438h-1.5532504zm-2.16676-1.183197h1.772361l-.8910496-2.6536723z"/><path d="m11.973175 5.5382089q0 1.2659721-.540473 1.9768642-.540473.7060229-1.5094284.7060229-.8569657 0-1.3682237-.6573317l-.0632986.5599492h-1.2659721v-7.47897363h1.4071767v2.68288703q.4869124-.5696875 1.2805795-.5696875.9640866 0 1.5094286.7108921.550211.7060229.550211 1.9914715zm-1.407177-.1022516q0-.7985362-.253194-1.1637205-.253195-.3700533-.7547146-.3700533-.6719391 0-.9251335.5502109v2.0791157q.2580636.5550801.9348717.5550801.6816774 0 .8959184-.671939.102252-.3213622.102252-.9786939z"/></g></svg>

<?xml version="1.0" encoding="UTF-8" standalone="no"?>
<!-- Created with Inkscape (http://www.inkscape.org/) -->

<svg
   xmlns:dc="http://purl.org/dc/elements/1.1/"
   xmlns:cc="http://creativecommons.org/ns#"
   xmlns:rdf="http://www.w3.org/1999/02/22-rdf-syntax-ns#"
   xmlns:svg="http://www.w3.org/2000/svg"
   xmlns="http://www.w3.org/2000/svg"
   xmlns:xlink="http://www.w3.org/1999/xlink"
   xmlns:sodipodi="http://sodipodi.sourceforge.net/DTD/sodipodi-0.dtd"
   xmlns:inkscape="http://www.inkscape.org/namespaces/inkscape"
   id="svg7384"
   height="16"
   width="16"
   version="1.1"
   inkscape:version="0.92.2 (unknown)"
   sodipodi:docname="tools-check-spelling-symbolic.svg">
  <defs
     id="defs10">
    <linearGradient
       id="linearGradient4565">
      <stop
         style="stop-color:#161616;stop-opacity:1;"
         offset="0"
         id="stop4567" />
      <stop
         style="stop-color:#3a3a3a;stop-opacity:1;"
         offset="1"
         id="stop4569" />
    </linearGradient>
    <linearGradient
       id="linearGradient3569">
      <stop
         style="stop-color:#161616;stop-opacity:1;"
         offset="0"
         id="stop3571" />
      <stop
         style="stop-color:#3a3a3a;stop-opacity:1;"
         offset="1"
         id="stop3573" />
    </linearGradient>
    <linearGradient
       y2="-40.636906"
       x2="54.675591"
       y1="40.918156"
       x1="136.23065"
       gradientUnits="userSpaceOnUse"
       id="linearGradient4548"
       xlink:href="#linearGradient3569"
       inkscape:collect="always" />
  </defs>
  <sodipodi:namedview
     pagecolor="#ffffff"
     bordercolor="#666666"
     borderopacity="1"
     objecttolerance="10"
     gridtolerance="10"
     guidetolerance="10"
     inkscape:pageopacity="0"
     inkscape:pageshadow="2"
     inkscape:window-width="1317"
     inkscape:window-height="716"
     id="namedview8"
     showgrid="false"
     inkscape:zoom="10.429825"
     inkscape:cx="11.563924"
     inkscape:cy="13.855519"
     inkscape:window-x="49"
     inkscape:window-y="27"
     inkscape:window-maximized="1"
     inkscape:current-layer="svg7384" />
  <metadata
     id="metadata90">
    <rdf:RDF>
      <cc:Work
         rdf:about="">
        <dc:format>image/svg+xml</dc:format>
        <dc:type
           rdf:resource="http://purl.org/dc/dcmitype/StillImage" />
        <dc:title>Gnome Symbolic Icon Theme</dc:title>
      </cc:Work>
    </rdf:RDF>
  </metadata>
  <title
     id="title9167">Gnome Symbolic Icon Theme</title>
  <path
     style="fill:#bfbfbf;fill-opacity:0.90196078;stroke:none;stroke-width:0.89898473px;stroke-linecap:butt;stroke-linejoin:miter;stroke-opacity:1"
     d="M 5.943561,9.3213963 4.4808061,10.906047 8.990967,15.35526 16,8.9861816 14.293453,7.6757971 9.021441,12.288808 Z"
     id="path2387"
     inkscape:connector-curvature="0"
     sodipodi:nodetypes="ccccccc" />
  <path
     inkscape:connector-curvature="0"
     id="path2393"
     style="font-style:normal;font-variant:normal;font-weight:bold;font-stretch:normal;font-size:medium;line-height:1.25;font-family:Roboto;-inkscape-font-specification:'Roboto Bold';letter-spacing:0px;word-spacing:0px;fill:#bfbfbf;fill-opacity:0.90196078;stroke:none;stroke-width:0.24929912"
     d="M 4.6013217,6.6629765 H 2.0401627 L 1.5532504,8.1237135 H 0 L 2.6390649,1.0342697 H 3.9926812 L 6.6463535,8.1237135 H 5.0931031 Z m -2.16676,-1.183197 h 1.772361 L 3.3158731,2.8261072 Z" />
  <path
     inkscape:connector-curvature="0"
     id="path2395"
     style="font-style:normal;font-variant:normal;font-weight:bold;font-stretch:normal;font-size:medium;line-height:1.25;font-family:Roboto;-inkscape-font-specification:'Roboto Bold';letter-spacing:0px;word-spacing:0px;fill:#bfbfbf;fill-opacity:0.90196078;stroke:none;stroke-width:0.24929912"
     d="m 11.973175,5.5382089 q 0,1.2659721 -0.540473,1.9768642 -0.540473,0.7060229 -1.5094284,0.7060229 -0.8569657,0 -1.3682237,-0.6573317 L 8.4917513,8.1237135 H 7.2257792 V 0.64473987 H 8.6329559 V 3.3276269 q 0.4869124,-0.5696875 1.2805795,-0.5696875 0.9640866,0 1.5094286,0.7108921 0.550211,0.7060229 0.550211,1.9914715 z M 10.565998,5.4359573 q 0,-0.7985362 -0.253194,-1.1637205 -0.253195,-0.3700533 -0.7547146,-0.3700533 -0.6719391,0 -0.9251335,0.5502109 v 2.0791157 q 0.2580636,0.5550801 0.9348717,0.5550801 0.6816774,0 0.8959184,-0.671939 0.102252,-0.3213622 0.102252,-0.9786939 z" />
</svg>
